**harm	**harte	**timestamp	**phrase	**leadinstrument	**kern
*M4/4	*M4/4	*	*	*	*
*D:	*D:	*	*	*	*D:
1r;	N	0	.	r	1r;
=1	=1	=1	=1	=1	=1
*>A_intro	*>A_intro	*>A_intro	*>A_intro	*>A_intro	*>A_intro
1vi	B:min	0.279	newline	synthesizer	1B 1dd 1ff#
=2	=2	=2	=2	=2	=2
1vi	B:min	2.127	.	synthesizer	1B 1dd 1ff#
=3	=3	=3	=3	=3	=3
1vi	B:min	3.975	.	synthesizer	1B 1dd 1ff#
=4	=4	=4	=4	=4	=4
1vi	B:min	5.823	.	synthesizer	1B 1dd 1ff#
=5	=5	=5	=5	=5	=5
*>B_verse	*>B_verse	*>B_verse	*>B_verse	*>B_verse	*>B_verse
1I	D:maj	7.671	newline	voice	1D 1f# 1a
=6	=6	=6	=6	=6	=6
1I	D:maj	9.475	.	voice	1D 1f# 1a
=7	=7	=7	=7	=7	=7
1I	D:maj	11.28	.	voice	1D 1f# 1a
=8	=8	=8	=8	=8	=8
1I	D:maj	13.084	.	voice	1D 1f# 1a
=9	=9	=9	=9	=9	=9
1I	D:maj	14.889	newline	voice	1D 1f# 1a
=10	=10	=10	=10	=10	=10
1I	D:maj	16.694	.	voice	1D 1f# 1a
=11	=11	=11	=11	=11	=11
1I	D:maj	18.5	.	voice	1D 1f# 1a
=12	=12	=12	=12	=12	=12
1I	D:maj	20.306	.	voice	1D 1f# 1a
=13	=13	=13	=13	=13	=13
1IV	G:maj	22.112	newline	voice	1G 1b 1dd
=14	=14	=14	=14	=14	=14
1IV	G:maj	23.911	.	voice	1G 1b 1dd
=15	=15	=15	=15	=15	=15
1V	A:maj	25.71	.	voice	1A 1cc# 1ee
=16	=16	=16	=16	=16	=16
*M2/4	*M2/4	*M2/4	*M2/4	*M2/4	*M2/4
2IV	G:maj	27.509	.	voice	2G 2b 2dd
=17	=17	=17	=17	=17	=17
*M4/4	*M4/4	*M4/4	*M4/4	*M4/4	*M4/4
1I	D:maj	28.409	.	voice	1D 1f# 1a
=18	=18	=18	=18	=18	=18
1III	F#:maj	30.208	newline	voice	1F# 1a# 1cc#
=19	=19	=19	=19	=19	=19
1III	F#:maj	32.048	.	voice	1F# 1a# 1cc#
=20	=20	=20	=20	=20	=20
2I	D:maj	33.887	newline	voice	2D 2f# 2a
2V	A:maj	34.801	.	voice	2A 2cc# 2ee
=21	=21	=21	=21	=21	=21
2IV	G:maj	35.714	.	voice	2G 2b 2dd
2I	D:maj	36.628	.	voice	2D 2f# 2a
=22	=22	=22	=22	=22	=22
*>B2_verse	*>B2_verse	*>B2_verse	*>B2_verse	*>B2_verse	*>B2_verse
1I	D:maj	37.542	newline	voice	1D 1f# 1a
=23	=23	=23	=23	=23	=23
1I	D:maj	39.326	.	voice	1D 1f# 1a
=24	=24	=24	=24	=24	=24
1I	D:maj	41.111	.	voice	1D 1f# 1a
=25	=25	=25	=25	=25	=25
1I	D:maj	42.895	.	voice	1D 1f# 1a
=26	=26	=26	=26	=26	=26
1I	D:maj	44.68	newline	voice	1D 1f# 1a
=27	=27	=27	=27	=27	=27
1I	D:maj	46.491	.	voice	1D 1f# 1a
=28	=28	=28	=28	=28	=28
1I	D:maj	48.302	.	voice	1D 1f# 1a
=29	=29	=29	=29	=29	=29
1I	D:maj	50.113	.	voice	1D 1f# 1a
=30	=30	=30	=30	=30	=30
1IV	G:maj	51.925	newline	voice	1G 1b 1dd
=31	=31	=31	=31	=31	=31
1IV	G:maj	53.716	.	voice	1G 1b 1dd
=32	=32	=32	=32	=32	=32
1V	A:maj	55.507	.	voice	1A 1cc# 1ee
=33	=33	=33	=33	=33	=33
*M2/4	*M2/4	*M2/4	*M2/4	*M2/4	*M2/4
2IV	G:maj	57.298	.	voice	2G 2b 2dd
=34	=34	=34	=34	=34	=34
*M4/4	*M4/4	*M4/4	*M4/4	*M4/4	*M4/4
1I	D:maj	58.193	.	voice	1D 1f# 1a
=35	=35	=35	=35	=35	=35
1I	D:maj	59.985	.	voice	1D 1f# 1a
=36	=36	=36	=36	=36	=36
*>C_bridge	*>C_bridge	*>C_bridge	*>C_bridge	*>C_bridge	*>C_bridge
1ii	E:min	61.776	newline	voice	1E 1g 1b
=37	=37	=37	=37	=37	=37
1ii	E:min	63.579	.	voice	1E 1g 1b
=38	=38	=38	=38	=38	=38
2vi	B:min	65.383	.	voice	2B 2dd 2ff#
2V	A:maj	66.284	.	voice	2A 2cc# 2ee
=39	=39	=39	=39	=39	=39
1IVm7	G:7	67.186	.	voice	1G 1b 1dd 1ff#
=40	=40	=40	=40	=40	=40
1ii	E:min	68.99	newline	voice	1E 1g 1b
=41	=41	=41	=41	=41	=41
1ii	E:min	70.779	.	voice	1E 1g 1b
=42	=42	=42	=42	=42	=42
2vi	B:min	72.569	.	voice	2B 2dd 2ff#
2V	A:maj	73.463	.	voice	2A 2cc# 2ee
=43	=43	=43	=43	=43	=43
1IV	G:maj	74.358	.	voice	1G 1b 1dd
=44	=44	=44	=44	=44	=44
1IV	G:maj	76.147	.	voice	1G 1b 1dd
=45	=45	=45	=45	=45	=45
*>D_solo	*>D_solo	*>D_solo	*>D_solo	*>D_solo	*>D_solo
1I	D:maj	77.937	newline	electric sitar	1D 1f# 1a
=46	=46	=46	=46	=46	=46
1I	D:maj	79.731	.	electric sitar	1D 1f# 1a
=47	=47	=47	=47	=47	=47
1I	D:maj	81.526	.	electric sitar	1D 1f# 1a
=48	=48	=48	=48	=48	=48
1I	D:maj	83.32	.	electric sitar	1D 1f# 1a
=49	=49	=49	=49	=49	=49
1I	D:maj	85.114	newline	electric sitar	1D 1f# 1a
=50	=50	=50	=50	=50	=50
1III	F#:maj	86.93	.	electric sitar	1F# 1a# 1cc#
=51	=51	=51	=51	=51	=51
1III	F#:maj	88.746	.	electric sitar	1F# 1a# 1cc#
=52	=52	=52	=52	=52	=52
*>B3_verse	*>B3_verse	*>B3_verse	*>B3_verse	*>B3_verse	*>B3_verse
1I	D:maj	90.562	newline	voice	1D 1f# 1a
=53	=53	=53	=53	=53	=53
1I	D:maj	92.359	.	voice	1D 1f# 1a
=54	=54	=54	=54	=54	=54
1I	D:maj	94.155	.	voice	1D 1f# 1a
=55	=55	=55	=55	=55	=55
1I	D:maj	95.952	.	voice	1D 1f# 1a
=56	=56	=56	=56	=56	=56
1I	D:maj	97.748	newline	voice	1D 1f# 1a
=57	=57	=57	=57	=57	=57
1I	D:maj	99.542	.	voice	1D 1f# 1a
=58	=58	=58	=58	=58	=58
1I	D:maj	101.335	.	voice	1D 1f# 1a
=59	=59	=59	=59	=59	=59
1I	D:maj	103.129	.	voice	1D 1f# 1a
=60	=60	=60	=60	=60	=60
1IV	G:maj	104.922	newline	voice	1G 1b 1dd
=61	=61	=61	=61	=61	=61
2IV	G:maj	106.728	.	voice	2G 2b 2dd
2I	D:maj	107.631	.	voice	2D 2f# 2a
=62	=62	=62	=62	=62	=62
1I	D:maj	108.533	.	voice	1D 1f# 1a
=63	=63	=63	=63	=63	=63
1I	D:maj	110.339	.	voice	1D 1f# 1a
=64	=64	=64	=64	=64	=64
*>B4_verse	*>B4_verse	*>B4_verse	*>B4_verse	*>B4_verse	*>B4_verse
1I	D:maj	112.144	newline	voice	1D 1f# 1a
=65	=65	=65	=65	=65	=65
1I	D:maj	113.944	.	voice	1D 1f# 1a
=66	=66	=66	=66	=66	=66
1I	D:maj	115.744	.	voice	1D 1f# 1a
=67	=67	=67	=67	=67	=67
1I	D:maj	117.543	.	voice	1D 1f# 1a
=68	=68	=68	=68	=68	=68
1I	D:maj	119.343	newline	voice	1D 1f# 1a
=69	=69	=69	=69	=69	=69
1I	D:maj	121.139	.	voice	1D 1f# 1a
=70	=70	=70	=70	=70	=70
1I	D:maj	122.935	.	voice	1D 1f# 1a
=71	=71	=71	=71	=71	=71
1I	D:maj	124.731	.	voice	1D 1f# 1a
=72	=72	=72	=72	=72	=72
*>E_outro	*>E_outro	*>E_outro	*>E_outro	*>E_outro	*>E_outro
1Im7	D:7	126.527	newline	voice	1D 1f# 1a 1cc#
=73	=73	=73	=73	=73	=73
1I	D:maj	128.324	.	voice	1D 1f# 1a
=74	=74	=74	=74	=74	=74
1I	D:maj	130.122	.	voice	1D 1f# 1a
=75	=75	=75	=75	=75	=75
1I	D:maj	131.919	.	voice	1D 1f# 1a
=76	=76	=76	=76	=76	=76
1Im7	D:7	133.717	newline	voice	1D 1f# 1a 1cc#
=77	=77	=77	=77	=77	=77
1I	D:maj	135.529	.	voice	1D 1f# 1a
=78	=78	=78	=78	=78	=78
1I	D:maj	137.342	.	voice	1D 1f# 1a
=79	=79	=79	=79	=79	=79
1I	D:maj	139.155	.	voice	1D 1f# 1a
=80	=80	=80	=80	=80	=80
*>_fadeout	*>_fadeout	*>_fadeout	*>_fadeout	*>_fadeout	*>_fadeout
1Im7	D:7	140.967	newline	voice	1D 1f# 1a 1cc#
=81	=81	=81	=81	=81	=81
1I	D:maj	142.767	.	voice	1D 1f# 1a
=82	=82	=82	=82	=82	=82
1I	D:maj	144.567	.	voice	1D 1f# 1a
=83	=83	=83	=83	=83	=83
1I	D:maj	146.366	.	voice	1D 1f# 1a
=84	=84	=84	=84	=84	=84
1Im7	D:7	148.166	newline	voice	1D 1f# 1a 1cc#
=85	=85	=85	=85	=85	=85
1I	D:maj	148.962	.	voice	1D 1f# 1a
=86	=86	=86	=86	=86	=86
1I	D:maj	149.759	.	voice	1D 1f# 1a
=87	=87	=87	=87	=87	=87
1I	D:maj	150.555	.	voice	1D 1f# 1a
1r;	N	151.352	.	r	1r;
1r;	N	155.308	.	r	1r;
*-	*-	*-	*-	*-	*-
!!!OTL: Cry Like A Baby
!!!COC: The Box Tops
!!!BillboardChartDate: 1968/04/20
!!!BillboardPeak: 2
!!!BillboardWeeksOnChart: 15
!!!SampleTargetRank: 1
!!!SampleActualRank: 3
!!!SampleID#: 0935
!!!RDF**harmony: **recip + pitch class of root + harmonic quality
!!!RDF**harte: Chris Harte's syntax, used by MIREX
!!!RDF**phrase: newline = linebreak in original McGill transcription
!!!RDF**timestamp: McGill audio timestamp in seconds
!!!RDF**leadinstrument: original McGill primary instrumentation annotation
!!!RDT: 2017/01/12/
!!!ENC: Nathaniel Condit-Schultz
!!!EST: Awating manual error checking and editing.
